svg/fluentui-system-icons/ic_fluent_shield_lock_20_filled.svg

<svg width="20" height="20" viewBox="0 0 20 20" fill="none" xmlns="http://www.w3.org/2000/svg">
<path d="M12.5 12V11C12.5 9.89543 13.3954 9 14.5 9C15.6046 9 16.5 9.89543 16.5 11V12H17C17.5523 12 18 12.4477 18 13V17C18 17.5523 17.5523 18 17 18H12C11.4477 18 11 17.5523 11 17V13C11 12.4477 11.4477 12 12 12H12.5ZM13.5 11V12H15.5V11C15.5 10.4477 15.0523 10 14.5 10C13.9477 10 13.5 10.4477 13.5 11ZM15.25 15C15.25 14.5858 14.9142 14.25 14.5 14.25C14.0858 14.25 13.75 14.5858 13.75 15C13.75 15.4142 14.0858 15.75 14.5 15.75C14.9142 15.75 15.25 15.4142 15.25 15ZM9.72265 2.08397C9.8906 1.97201 10.1094 1.97201 10.2774 2.08397C12.2155 3.3761 14.3117 4.18231 16.5707 4.50503C16.817 4.54021 17 4.75118 17 5V9.3411C16.4625 8.53275 15.5435 8 14.5 8C12.8431 8 11.5 9.34315 11.5 11V11.063C10.6374 11.285 10 12.0681 10 13V17C10 17.3416 10.0857 17.6633 10.2367 17.9446C10.2176 17.952 10.1986 17.9593 10.1795 17.9667C10.064 18.0111 9.93605 18.0111 9.82051 17.9667C5.30699 16.2307 3 13.3913 3 9.5V5C3 4.75118 3.18296 4.54021 3.42929 4.50503C5.68833 4.18231 7.78446 3.3761 9.72265 2.08397Z" fill="#212121"/>
</svg>

<svg xmlns="http://www.w3.org/2000/svg" width="20" height="20"><path d="M12.5 12v-1a2 2 0 1 1 4 0v1h.5a1 1 0 0 1 1 1v4a1 1 0 0 1-1 1h-5a1 1 0 0 1-1-1v-4a1 1 0 0 1 1-1h.5Zm1-1v1h2v-1a1 1 0 1 0-2 0Zm1.75 4a.75.75 0 1 0-1.5 0 .75.75 0 0 0 1.5 0ZM9.723 2.084a.5.5 0 0 1 .554 0 15.05 15.05 0 0 0 6.294 2.421A.5.5 0 0 1 17 5v4.341A3 3 0 0 0 11.5 11v.063A2 2 0 0 0 10 13v4c0 .342.086.663.237.945l-.057.022a.5.5 0 0 1-.36 0C5.308 16.23 3 13.39 3 9.5V5a.5.5 0 0 1 .43-.495 15.05 15.05 0 0 0 6.293-2.421Z"/></svg>
